X: 151
T:The Meeting of the Waters Harmony 2
M:4/4
L:1/4
K:A
GG|c2ce|A2c>B|AdAF|A2cd|eaAa|fedd|e3f/e/|e2GA|
c2ce|A2c>B|AdAF|A2c>d|eafe|eGBd|c2cc|c2||
a>f|e2a>g|eaeA|AdfA|G2g>f|eaAa|fedd|e2>fe/|d2g>f|
e2a>f|eaec|AFfA|A2c>d|eafe|fGBd|c2c>c|c2|]
